src/actions/symbolic/tool-eraser-symbolic.svg

<svg width="16" height="16" version="1.1" xmlns="http://www.w3.org/2000/svg">
 <path d="m11.779 1.2943c-0.196-0.1959-0.45111-0.29279-0.70711-0.29279-0.255 0-0.51111 0.096887-0.70711 0.29279l-4.244 4.2413 4.244 4.244 4.2413-4.244c0.392-0.3918 0.392-1.0225 0-1.4142zm-0.70849 0.70573 2.8284 2.8284-3.5355 3.5355-2.8284-2.8284zm3.9291 12-6.0007 0.0014c-1 0-0.99989 0.99989-0.99989 0.99989l7.0006-0.0014zm-9.586-7.7575-2.1213 2.1241c-0.3918 0.3918-0.3918 1.0225 0 1.4142l2.827 2.827c0.3917 0.392 1.0224 0.392 1.4142 0l2.1241-2.1213zm0 1.4142 2.8284 2.8284-1.4142 1.4142-2.8284-2.8284zm-0.73887 6.5753c-0.1477-0.13428-0.36284-0.23064-0.67534-0.23064h-2.9997l1e-7 0.99989h3.9996s4.003e-4 -0.47384-0.32455-0.76926z" fill="#363636"/>
</svg>

<svg xmlns="http://www.w3.org/2000/svg" width="16" height="16">
    <path fill="#050505" fill-opacity=".7" d="M11.779 1.294a.997.997 0 0 0-1.414 0L6.12 5.536l4.244 4.244 4.241-4.244a.997.997 0 0 0 0-1.415zM11.071 2l2.828 2.828-3.536 3.536-2.828-2.828zM15 14l-6.001.001c-1 0-1 1-1 1l7-.001zM5.414 6.243 3.292 8.367a.998.998 0 0 0 0 1.414l2.827 2.827a.997.997 0 0 0 1.415 0l2.124-2.121zm0 1.414 2.828 2.828L6.828 11.9 3.999 9.071zm-.74 6.575c-.147-.134-.362-.23-.675-.23H1v1h4s0-.475-.324-.77z"/>
</svg>
